fs/folder_arrow_left_20_regular.svg

<svg viewBox="0 0 20 20" fill="none" xmlns="http://www.w3.org/2000/svg" height="1em" width="1em">
  <path d="M2 5.5C2 4.11929 3.11929 3 4.5 3H7.16667C7.49122 3 7.80702 3.10527 8.06667 3.3L9.66667 4.5H15.5C16.8807 4.5 18 5.61929 18 7V10.2572C17.6929 10.0035 17.3578 9.78261 17 9.59971V7C17 6.17157 16.3284 5.5 15.5 5.5H9.61907L8.15763 7.03449C7.87452 7.33176 7.48194 7.5 7.07143 7.5H3V14.5C3 15.3284 3.67157 16 4.5 16H9.20703C9.30564 16.3486 9.43777 16.6832 9.59971 17H4.5C3.11929 17 2 15.8807 2 14.5V5.5ZM4.5 4C3.67157 4 3 4.67157 3 5.5V6.5H7.07143C7.20827 6.5 7.33913 6.44392 7.4335 6.34483L8.69446 5.02084L7.46667 4.1C7.38012 4.03509 7.27485 4 7.16667 4H4.5ZM14.5 19C12.0147 19 10 16.9853 10 14.5C10 12.0147 12.0147 10 14.5 10C16.9853 10 19 12.0147 19 14.5C19 16.9853 16.9853 19 14.5 19ZM12.1468 14.146L12.1443 14.1486C12.0974 14.196 12.062 14.2505 12.0379 14.3086C12.0139 14.3667 12.0004 14.4303 12 14.497L12 14.5L12 14.503C12.0004 14.5697 12.0139 14.6333 12.0379 14.6914C12.0623 14.7504 12.0985 14.8056 12.1464 14.8536L14.1464 16.8536C14.3417 17.0488 14.6583 17.0488 14.8536 16.8536C15.0488 16.6583 15.0488 16.3417 14.8536 16.1464L13.7071 15H16.5C16.7761 15 17 14.7761 17 14.5C17 14.2239 16.7761 14 16.5 14H13.7071L14.8536 12.8536C15.0488 12.6583 15.0488 12.3417 14.8536 12.1464C14.6583 11.9512 14.3417 11.9512 14.1464 12.1464L12.1468 14.146Z" fill="#212121"/>
</svg>

<svg viewBox="0 0 20 20" fill="none" xmlns="http://www.w3.org/2000/svg" height="1em" width="1em">
  <path d="M2 5.5A2.5 2.5 0 0 1 4.5 3h2.667c.324 0 .64.105.9.3l1.6 1.2H15.5A2.5 2.5 0 0 1 18 7v3.257a5.503 5.503 0 0 0-1-.657V7a1.5 1.5 0 0 0-1.5-1.5H9.62L8.157 7.034A1.5 1.5 0 0 1 7.07 7.5H3v7A1.5 1.5 0 0 0 4.5 16h4.707c.099.349.23.683.393 1H4.5A2.5 2.5 0 0 1 2 14.5v-9ZM4.5 4A1.5 1.5 0 0 0 3 5.5v1h4.071a.5.5 0 0 0 .363-.155l1.26-1.324L7.467 4.1a.5.5 0 0 0-.3-.1H4.5Zm10 15a4.5 4.5 0 1 1 0-9 4.5 4.5 0 0 1 0 9Zm-2.353-4.854-.003.003a.499.499 0 0 0-.144.348v.006a.5.5 0 0 0 .146.35l2 2a.5.5 0 0 0 .708-.707L13.707 15H16.5a.5.5 0 0 0 0-1h-2.793l1.147-1.146a.5.5 0 0 0-.708-.708l-2 2Z" fill="#212121"/>
</svg>
